X:1
T:Crisantemi
T:Crisantemi (transcription from IMSLP 109460)
T:Giacomo Puccini
C:Giacomo Puccini
%%score [ 1 2 3 4 ]
L:1/8
Q:1/4=90
M:3/4
K:E
V:1 treble nm="Violin I"
V:2 treble nm="Violin II"
V:3 alto nm="Viola"
V:4 bass nm="Violoncello"
V:1
"^Andante Mesto" z6 |!pp! z"_dolce" (!tenuto!G!tenuto!A!tenuto!^A)"_rit."(!tenuto!B^B | %2
 d2 c2) (ge) | d2 (c2 c)(G | B2) (!tenuto!A/!tenuto!B/!tenuto!G/!tenuto!A/) (Bc- | cD-)DEF{/A}G | %6
 (F2 E) z z2 | z (!tenuto!G!tenuto!A!tenuto!^A)"_rit."(!tenuto!B(!tenuto!^B) | d2) c4- | %9
 c(!tenuto!c!tenuto!=d!tenuto!^d)"_rit."(!tenuto!e(!tenuto!^e) | g2) f2- f z | %11
!pp! (c'a) ((g2 f2)) | (a>c)"^accel."!<(! c2 de!<)! | %13
 fA-"^rit."!>(! A/(!tenuto!B/!tenuto!G/!tenuto!A/) B(c-!>)! | %14
!ppp! cD-D)!<(!(!tenuto!E"^rall."!tenuto!F!tenuto!^^F)!<)! |!>(! (A>G) G4-!>)! | %16
 G(!tenuto!G!tenuto!A!tenuto!^A)"_rit."(!tenuto!B(!tenuto!^B) | c2) c4- | %18
 c(!tenuto!c!tenuto!=d!tenuto!^d)"_rit."(!tenuto!e(!tenuto!^e) | g2 f2) (ga) | %20
"^un poco affrettando" (c'a)!>(! (g2 f2)!>)! | (af)!>(! (e2 d2)!>)! | %22
"^allargando"!<(! f d2 !>!c!>!A!>!F!<)! | !^!E2 D2- D!ff!"^sostenuto"!^!G | %24
"_con forza" (!^!c>!^!d) !^!e!^!c (!^!f>d) |"^rall."!>(! g6!>)! |!pp! G6 | z6 | %28
 z"^trattenuto" (!tenuto!G,!tenuto!A,!tenuto!^A,)!<(!(!tenuto!B,^B,)!<)! |!>(! (D6!>)! | %30
 C4-) C z ||"^a tempo""^A" z6 | z2 z2 z3/2!p!"^con molta espressione" (F/ | A2-) A>(F B>)f | %34
!>(! (f<c-)!>)! c2- c z/ (c/ | e2) (=d7/2 B/) | %36
 (B<c-) c2!pp!{/=d} (3(!tenuto!c!tenuto!B!tenuto!A) | %37
 B2- B/(!tenuto!c/!tenuto!B/!tenuto!c/) (!tenuto!A/!tenuto!B/!tenuto!A/!tenuto!B/) | %38
 G4"_poco rit." (3(!tenuto!B!tenuto!A!tenuto!G) | %39
 A2- A/(c/f/).A/ (!tenuto!G/!tenuto!A/!tenuto!G/!tenuto!A/) | F2- F z z2 | z2 z2 z3/2!mf! (vA/ | %42
 f>)(e!>(! =d>)!>)!(c B>)(A |!pp! G>)(!>!B"^poco rall." G>)(!>!B G>)(!>!B | %44
 G) z z2 z3/2"_a tempo" (f/ |"_molto espressivo" a2-) a>f b>f' | (!>!f'<c'-) c'2- c' z/ (c'/ | %47
 e'2) (=d'7/2 b/) |!>(! (b<!>)!c'-) c'2!pp!{/=d'} (3(!tenuto!c'!tenuto!b!tenuto!a) | %49
 b2- b/(!tenuto!c'/!tenuto!b/!tenuto!c'/) (!tenuto!a/!tenuto!b/!tenuto!a/!tenuto!b/) | %50
 g4 (3(!tenuto!b!tenuto!a!tenuto!g) | %51
 a2-!<(! a/(c'/f'/).a/!<)!!>(! (!tenuto!g/!tenuto!a/!tenuto!g/!tenuto!a/)!>)! | %52
 f2- f/!pp!"^senza rall." .A/.F/.A/ .G/.B/.G/.B/ | .A/.c/!>(!f- f2!>)! c2 | %54
 !tenuto!F2- F/.A/.F/.A/ .G/.B/.G/.B/ | .A/.c/.f/.c/!>(! a2!>)! !tenuto!c2 | F2- F z!f! (F2 | %57
 G2-) Gz/(G/B)z/(G/ | A2-) A z"^portando" (c2 | G2-) Gz/(G/B)z/(G/ | F2-) F z!mf! (F2 | %61
 G2-) Gz/"_molto rit."uG/ (3vA(G3/2F/) |"_poco cresc.""^B" (G4 A2 | ^A2!>(! B2!>)! ^B2 | %64
 d2 c2) (ge) | d2 c2- c(G | B2) (!tenuto!A/!tenuto!B/!tenuto!G/!tenuto!A/) (Bc- | c)D- DEF{/A}G | %68
 (F2 E) z z2 | z (!tenuto!G!tenuto!A!tenuto!^A)"_rit."(!tenuto!B(!tenuto!^B) | d2) c4- | %71
 c(!tenuto!c!tenuto!=d!tenuto!^d)"_rit."(!tenuto!e(!tenuto!^e) | g2) f2- f z |!pp! (c'a) (g2 f2) | %74
 (a>!<(!c)!<)!"^accel." c2 de | fA-"^rit."!>(! A/!>)!(!tenuto!B/!tenuto!G/!tenuto!A/) B(c- | %76
 c!ppp!D-D)!<(!(!tenuto!E!<)!"^rall."!tenuto!F!tenuto!^^F) |!>(! (A>!>)!G) G4- | %78
 G(!tenuto!G!tenuto!A!tenuto!^A)"_rit."(!tenuto!B(!tenuto!^B) | d2) c4- | %80
 c(!tenuto!c!tenuto!=d!tenuto!^d)"_rit."(!tenuto!e(!tenuto!^e) | (g2) f2) (ga) | %82
"^un poco affrettando" (c'a)!>(! (g2!>)! f2) | (af)!>(! (e2!>)! d2) | %84
"^allargando"!<(! f!<)! d2 !>!c!>!A!>!F | !^!E2 D2- D!ff!"^sostenuto"!^!G | %86
"_con forza" (!^!c>d) !^!e!^!c (!^!f>d) |"^rall."!>(! g6!>)! |!pp! G6 | z6 | %90
 z"^trattenuto" (!tenuto!G,!tenuto!A,!tenuto!^A,)!<(!(!tenuto!B,!<)!!tenuto!^B,) | %91
!pp!"^senza rall." (D2 C4-) | C4 !tenuto!G,2 | C6- | C4 !tenuto!G,2 | C4- C z |"^rall." C4 C2 | %97
"^perdendosi"!>(! C6-!>)! | C z z2 !fermata!z2 |] %99
V:2
 z6 |!pp! z"_dolce" ((!tenuto!F!tenuto!F!tenuto!G))"_rit."(!tenuto!=G!tenuto!F | %2
 E2) (F^^F)(!courtesy!^GA/^B/) | G [G,G]2 [G,G]2 G, | C4 F2 | D(F G,2) ^B,2 | C2- C z z2 | %7
 z (!tenuto!F!tenuto!F!tenuto!G)"_rit."(!tenuto!=G!tenuto!F) | E6- | %9
 E(!tenuto!^E!tenuto!F!tenuto!^^F)"_rit."(!tenuto!^F!tenuto!C- | %10
 CA- A/)(!tenuto!B/!tenuto!G/!tenuto!A/) Bc- |!pp! c6 | z/ (C/F/C/)"^accel."!<(! F [CF]2 [CF]!<)! | %13
 z/ (A,/D/A,/)"^rit."!>(! D [A,D]2 [A,D]!>)! | C2-!<(! CC-"^rall."CC!<)! |!>(! ^B,6-!>)! | %16
 ^B,(!tenuto!B,!tenuto!C!tenuto!^^C)"_rit."(!tenuto!^C!tenuto!G,) | E6- | %18
 E(!tenuto!^E!tenuto!F!tenuto!^^F)"_rit."(!tenuto!^F!tenuto!C) | C3 (Acf) | %20
"^un poco affrettando" (fd)!>(! c4!>)! | (dc)!>(! A4!>)! |"^allargando"!<(! c A2 !>!F!>!D!>!C!<)! | %23
!f! !^!A,4- A,!ff!!^!G |"^sostenuto""_con forza" (!^!E>G) !^!c!^!E (!^!d>G) |"^rall."!>(! e6!>)! | %26
!pp! E6 | z6 | z"^trattenuto" (!tenuto!G,!tenuto!A,!tenuto!G,)!<(!(!tenuto!=G,!<)!^G,) | %29
!f!!>(! G,6-!>)! |!pp! G,4- G, z ||!pp!"^a tempo"!<(! C4!<)!!>(! B,2!>)! |!<(! C4!>(! B,2!<)!!>)! | %33
 C4 B,2 | C6 | B,6 | C4!pp! (3:2:2(C2 F) | B,2 (E2 F2) | %38
 (B,2 =D2)"_poco rit." (3(!tenuto!G!tenuto!^E!tenuto!B,) | C2- C/(F/A/).F/ (=DB,) | A,2- A, z z2 | %41
 z2 z3/2!mf! (u=G/ ^A,>)(E | =D>)(E!>(! F>)!>)!(E D>)(F | %43
!pp! ^E>)(!>!F"^poco rall." E>)(!>!F E>)(!>!F | ^E) z z4 | %45
"_a tempo" (F/C/F/C/) (F/C/F/C/) (F/=D/F/G/) | (A/C/F/C/) (F/C/F/C/) (F/C/F/C/) | %47
 (G/B,/G/B,/) (G/B,/G/B,/) (G/B,/G/=D/) | %48
 (F/C/A/C/) (A/C/A/C/)!pp! (3(!tenuto!A!tenuto!G!tenuto!F) | (G/E/G/E/) (G/E/G/E/) (F/=D/F/D/) | %50
 (^E/=D/E/D/) (E/D/E/D/) (3(!tenuto!G!tenuto!F!tenuto!E) | %51
 (F/C/F/C/)!<(! (F/C/A,/).F/!<)!!>(! (F/=D/B,/^E/)!>)! |"^senza rall." ([A,F] A,3) G,2 | A,4 B,2 | %54
 A,4 G,2 | A,4 B,2 | A,2- A, z (C2 | =D2-) Dz/(D/F)z/(D/ | F2-) F z"^portando"!p! (A2 | %59
 =D2-) Dz/(D/F)z/(D/ | C2-) C z!mf! (C2 | !courtesy!^D2-) Dz/"_molto rit."uD/ (3vD(D3/2C/) | %62
"_poco cresc." (D4 F2 | G2!>(! =G2!>)! F2 | E2) (F^^F)(!courtesy!^GA/^B/) | G [G,G]2 [G,G]2 G, | %66
 C4 F2 | D(F G,2) ^B,2 | C2- C z z2 | z (!tenuto!F!tenuto!F!tenuto!G)"_rit."(!tenuto!=G!tenuto!F) | %70
 E6- | E(!tenuto!^E!tenuto!F!tenuto!^^F)"_rit."(!tenuto!^F!tenuto!C- | %72
 CA- A/)(!tenuto!B/!tenuto!G/!tenuto!A/) Bc- |!pp! c6 | z/ (C/F/C/)"^accel."!<(! F!<)! [CF]2 [CF] | %75
 z/ (A,/D/A,/)"^rit."!>(! D!>)! [A,D]2 [A,D] | C2-!<(! C!<)!C-"^rall."CC |!>(! (^B,6!>)! | %78
 ^B,)(!tenuto!B,!tenuto!C!tenuto!^^C)"_rit."(!tenuto!^C!tenuto!G,) | E6- | %80
 E(!tenuto!^E!tenuto!F!tenuto!^^F)"_rit."(!tenuto!^F!tenuto!C) | C3 (Acf) | %82
"^un poco affrettando" (fd)!>(! c4!>)! | (dc)!>(! A4!>)! |"^allargando"!<(! c!<)! A2 !>!F!>!D!>!C | %85
!f! !^!A,4- A,!ff!"^sostenuto"!^!G |"_con forza" (!^!E>G) !^!c!^!E (!^!d>G) |"^rall."!>(! e6!>)! | %88
!pp! E6 | z6 | z"^trattenuto" (!tenuto!G,!tenuto!A,!tenuto!G,)!<(!(!tenuto!=G,!<)!!tenuto!^G,) | %91
!pp!"^senza rall." (D2 C4-) | C4 !tenuto!G,2 | C6- | C4 !tenuto!G,2 | C4- C z |"^rall." G,4 G,2 | %97
"^perdendosi"!>(! G,6-!>)! | G, z z2 !fermata!z2 |] %99
V:3
 z6 |!pp! z"_dolce" (!tenuto!^B,!tenuto!C!tenuto!^^C)"_rit."(!tenuto!^C!tenuto!G,) | %2
 z (G,A,D)(EF/G/) | (^B,2 C2) C,2 | %4
 z (C,F,G,) (!tenuto!A,/!tenuto!!courtesy!=B,/!tenuto!G,/!tenuto!A,/-) | A,(C F,2) D,2 | %6
 [C,G,]2- [C,G,] z z2 | z (!tenuto!^B,!tenuto!C!tenuto!^^C)"_rit."(!tenuto!^C!tenuto!G,) | %8
 G,4- G,(G, | C)(!tenuto!B!tenuto!B!tenuto!c)"_rit."(!tenuto!=c!tenuto!B) | AC-CC [A,F]2 | %11
 A,/(C/^E/F/) (A[A,C])(A[A,C]) |"^accel."!<(! A6!<)! |"^rit."!>(! F6!>)! | %14
 z/!ppp!!ppp! F,F,/-!<(! F,(E,"^rall." D,2)!<)! | z/!>(! D,D,/- D, !tenuto!G,2!>)! !tenuto!D- | %16
 D(!tenuto!F!tenuto!F!tenuto!G)"_rit."(!tenuto!=GF) | G,4- G,(G, | %18
 C)(!tenuto!B!tenuto!B!tenuto!c)"_rit."(!tenuto!=c!tenuto!B) | A3 (A,CF) | %20
"^un poco affrettando" (AF)!>(! D4!>)! | (FD)!>(! C4!>)! | %22
"^allargando"!<(! D C2 !>!A,!>!F,!>!D,!<)! |!f! !^!^B,,4- B,,!ff!!^!G, | %24
"^sostenuto""_con forza" (!^!C>D) !^!E!^!C (!^!F>D) |"^rall."!>(! G6!>)! |!pp! G,6 | z6 | %28
 z"^trattenuto" (!tenuto!^B,,!tenuto!C,!tenuto!^^C,)!<(!(!tenuto!^C,!<)!!tenuto!F,) | %29
!f!!f!!>(! E,6-!>)! |!pp!!pp! E,4- E, z || %31
!pp!"^a tempo" (A,/F,/A,/F,/)!<(! (A,/F,/A,/F,/)!<)!!>(! (G,/F,/G,/F,/)!>)! | %32
 (A,/F,/A,/F,/)!<(! (A,/F,/A,/F,/)!<)!!>(! (G,/F,/G,/F,/)!>)! | %33
 (A,/F,/A,/F,/) (A,/F,/A,/F,/) (G,/F,/G,/F,/) | (A,/F,/A,/F,/) (A,/F,/A,/F,/) (A,/F,/A,/F,/) | %35
 (G,/F,/G,/F,/) (G,/F,/G,/F,/) (G,/F,/G,/F,/) | (A,/F,/A,/F,/) (A,/F,/A,/F,/)!pp! (A,/F,/A,/F,/) | %37
 (G,/E,/G,/E,/) (G,/E,/G,/E,/) (F,/=D,/F,/D,/) | %38
 (^E,/=D,/E,/D,/) (E,/D,/E,/D,/)"_poco rit." (B,/E,/B,/E,/) | %39
 (A,/F,/A,/F,/) (A,/F,/A,/F,/) (G,/F,/G,/^E,/) | (F,/C,/F,/C,/ F,) z z3/2!mf! (vF/ | %41
 e>)(c ^A>)(B c>)(=d | c2)!>(! B>F F>(!courtesy!^D!>)! |!pp! ^E>)(=D"^poco rall." C>)(D C>)(D | %44
 C2) !tenuto!C2 !tenuto!C2 |"_a tempo" F,4 [F,G,]2 | [F,A,]4 [F,A,]2 | [F,G,]4 [F,G,]2 | %48
 [F,A,]4!pp! F,2 | [F,G,]4 [F,=D]2 | [F,B,]4 [F,C]2 | %51
 [F,C]2- [F,C]/(C/F/)A,/ (!tenuto!G,/!tenuto!A,/!tenuto!G,/!tenuto!A,/) | %52
!pp!"^senza rall." .F,/!pp!(F,/C,/F,/) (C,/F,/C,/F,/) (=D,/F,/D,/F,/) | %53
 (C,/F,/C,/F,/) (C,/F,/C,/F,/) (C,/^E,/C,/E,/) | (C,/F,/C,/F,/) (C,/F,/C,/F,/) (=D,/F,/D,/F,/) | %55
 (C,/F,/C,/F,/) (C,/F,/C,/F,/) (C,/^E,/C,/E,/) | z/ (C,/F,/C,/ F,) z!f!!f! (A,2 | %57
 B,2-) B,z/(B,/=D)z/(B,/ | C2-) C z"^portando" (F2 | B,2-) B,z/(B,/=D)z/(B,/ | %60
 A,2-) A, z!mf! (A,2 | ^B,2-) B,z/"_molto rit."uB,/ (3vC(B,3/2A,/) |"_poco cresc." (^B,4 C2 | %63
 ^^C2!>(! ^C2!>)! G,2) | z (G,A,D)(EF/G/) | (^B,2 C2) C,2 | %66
 z (C,F,G,) (!tenuto!A,/!tenuto!!courtesy!=B,/!tenuto!G,/!tenuto!A,/-) | A,(C F,2) D,2 | %68
 [C,G,]2- [C,G,] z z2 | z (!tenuto!^B,!tenuto!C!tenuto!^^C)"_rit."(!tenuto!^C!tenuto!G,) | %70
 G,4- G,(G, | C)(!tenuto!B!tenuto!B!tenuto!c)"_rit."(!tenuto!=c!tenuto!B) | AC-CC [A,F]2 | %73
 A,/(C/^E/F/) (A[A,C]) (A[A,C]) |"^accel."!<(! A6!<)! |"^rit."!>(! F6!>)! | %76
 z/!ppp!!ppp! F,F,/-!<(! F,!<)!(E,"^rall." D,2) | z/!>(! D,!>)!D,/- D, !tenuto!G,2 !tenuto!D- | %78
 D(!tenuto!F!tenuto!F!tenuto!G)"_rit."(!tenuto!=G!tenuto!F) | G,4- G,(G, | %80
 C)(!tenuto!B!tenuto!B!tenuto!c)"_rit."(!tenuto!=c!tenuto!B) | A3 (A,CF) | %82
"^un poco affrettando" (AF)!>(! D4!>)! | (FD)!>(! C4!>)! | %84
"^allargando"!<(! D!<)! C2 !>!A,!>!F,!>!D, |!f! !^!^B,,4- B,,"^sostenuto"!ff!!^!G, | %86
"_con forza" (!^!C>D) !^!E!^!C (!^!F>D) |"^rall."!>(! G6!>)! |!pp! G,6 | z6 | %90
 z"^trattenuto" (!tenuto!^B,,!tenuto!C,!tenuto!^^C,)!<(!(!tenuto!^C,!<)!!tenuto!F,) | %91
"^senza rall." E,2- E,/.E,/.C,/.E,/ .D,/.F,/.D,/.F,/ | .E,/.G,/!>(!C-!>)! C2 G,2 | %93
 C,2- .C,/.E,/.C,/.E,/ .D,/.F,/.D,/.F,/ | .E,/.G,/.C/.G,/!>(! E2!>)! G,2 | C,4- C, z | %96
"^rall." E,4 E,2 |"^perdendosi"!>(! E,6-!>)! | E, z z2 !fermata!z2 |] %99
V:4
!pp!"_dolce"!>(! G,4 G,2-!>)! | G,2 (!tenuto!F,!tenuto!^E,)"_rit."(!tenuto!=E,!tenuto!D,) | C,6 | %3
 E,4 E,,2 | F,,3 E,, D,,2 | G,,4 G,,2 | %6
 (!tenuto!C,,G,,).C,!tenuto!E,"^rall."!<(!!tenuto!F,(!tenuto!^^F,!<)! | %7
!>(! A,)(!tenuto!G,!>)!!pp!!tenuto!!courtesy!^F,!tenuto!^E,)"_rit."(!tenuto!=E,!tenuto!D,) | %8
 C,(C,,G,,C,E,G,) |!>(! C2 (!tenuto!B,!>)!!tenuto!^A,)"_rit."(!tenuto!=A,!tenuto!G,) | F,4 E,2 | %11
!pp!!pp! D,6 |"^accel."!<(! E,6!<)! |"^rit."!>(! C,6!>)! |!ppp!!<(! A,,6!<)! |!>(! G,,6-!>)! | %16
 G,,(!tenuto!G,!tenuto!F,!tenuto!^E,)"_rit."(!tenuto!=E,!tenuto!D,) | C,(C,,G,,C,E,G,) | %18
 C2 ((!tenuto!B,!tenuto!^A,))"_rit."(!tenuto!=A,!tenuto!G,) | F,(F,,C,F,A,C) | %20
"^un poco affrettando" (DC)!>(! A,4!>)! | (CA,)!>(! F,4!>)! | %22
"^allargando"!<(! A, F,2 !>!D,!>!C,!>!A,,!<)! |!f!!f! !^!F,,4- F,,!ff!!^!G, | %24
"^sostenuto""_con forza" (!^!E,>G,) !^!C!^!E, (!^!D>G,) |"^rall."!>(! E6!>)! | z6 |!pp! G,,6- | %28
 G,,2"^trattenuto" (!tenuto!F,,!tenuto!^E,,)!<(!(!tenuto!E,,!<)!!tenuto!D,,) | %29
!f!!>(! [C,,G,,]6-!>)! |!pp! [C,,G,,]4- [C,,G,,] z || %31
"_pizz.""^a tempo" .[F,,C,]2!pp! z2 .[F,,C,]2 | .[F,,C,]2 z2 .[F,,C,]2 | .[F,,C,]2 z2 .[F,,C,]2 | %34
 .[F,,C,]2 z2 .[F,,C,]2 | .[F,,C,]2 z2 .[F,,C,]2 | .[F,,C,]2 z2!pp! .[F,,C,]2 | %37
 .[F,,C,]2 z2 .[F,,C,]2 | .[F,,B,,]2 z2"_poco rit." .[F,,C,]2 | %39
 .[F,,C,]2 z .[=D,,=D,].B,,.[C,,C,] | .[F,,C,] z z/"_arco" (F,,/A,,/C,/!<(! ^E,/!<)!F,/A,/C/) | %41
!mf! =G2 !courtesy!=E2 F,2 | [B,,F,]2- [B,,F,]/(F,,/!>(!B,,/=D,/ ^E,/F,/B,/^B,/)!>)! | %43
!pp! C>(!>!G,"_poco rall." C>)(!>!G, C>)(!>!G, | C) z z2 z3/2"^a tempo" (F,/ | %45
"_molto espressivo" A,2-) A,>(F, B,>)F | (!>!F<C-) C2- C z/ (C/ | E2) (=D7/2 B,/) | %48
!>(! (B,<!>)!C-) C2!pp!{/=D} (3(!tenuto!C!tenuto!B,!tenuto!A,) | %49
 B,2- B,/(!tenuto!C/!tenuto!B,/!tenuto!C/) (!tenuto!A,/!tenuto!B,/!tenuto!A,/!tenuto!B,/) | %50
 G,4 (3(!tenuto!B,!tenuto!A,!tenuto!G,) |!<(! A,2 F,!>(!=D,!<)!B,,C,!>)! | %52
!pp!"^senza rall." F,,4 F,,2 | F,,4 F,,2 | F,,4 F,,2 | F,,4 F,,2 | F,, z!f!!>(! F,4-!>)! | %57
 F,2!>(! F,4-!>)! | F,2!>(! F,4-!>)! | F,2!>(! F,4-!>)! | F,2!>(! F,4-!>)! | F,2!>(! F,4-!>)! | %62
"_poco cresc." F,2 F,4 | ^E,2!>(! =E,2!>)! D,2 | C,6 | E,4 E,,2 | F,,3 E,, D,,2 | G,,4 G,,2 | %68
 (!tenuto!C,,G,,).C,!tenuto!E,"^rall."!<(!!tenuto!F,!<)!(!tenuto!^^F, | %69
!>(! A,)(!tenuto!G,!tenuto!!courtesy!^F,!>)!!pp!!tenuto!^E,)"_rit."(!tenuto!=E,!tenuto!D,) | %70
 C,(C,,G,,C,E,G,) |!>(! C2 ((!tenuto!B,!>)!!tenuto!^A,))"_rit."(!tenuto!=A,!tenuto!G,) | F,4 E,2 | %73
!pp!!pp! D,6 |"^accel."!<(! E,6!<)! |"^rit"!>(! C,6!>)! |!ppp!!<(! A,,6!<)! |!>(! G,,6-!>)! | %78
 G,,(!tenuto!G,!tenuto!F,!tenuto!^E,)"_rit."(!tenuto!=E,!tenuto!D,) | C,(C,,G,,C,E,G,) | %80
 C2 (!tenuto!B,!tenuto!^A,)"_rit."(!tenuto!=A,!tenuto!G,) | F,(F,,C,F,A,C) | %82
"^un poco affrettando" (DC)!>(! A,4!>)! | (CA,)!>(! F,4!>)! | %84
"^allargando"!<(! A,!<)! F,2 !>!D,!>!C,!>!A,, |!f!!f! !^!F,,4- !^!F,,!ff!"^sostenuto"!^!G, | %86
"_con forza" (!^!E,>G,) !^!C!^!E, (!^!D>G,) |"^rall."!>(! E6!>)! | z6 |!pp! G,,6- | %90
"^trattenuto" G,,2 (!tenuto!F,,!tenuto!^E,,)!<(!(!tenuto!=E,,!<)!!tenuto!D,,) | %91
!pp!"^senza rall." .C,,/!mf!.G,,/.C,,/.G,,/ C,,2 !tenuto!G,,2 | %92
 .C,,/.G,,/.C,,/.G,,/ C,2 !tenuto!G,,2 | .C,,/.G,,/.C,,/.G,,/ C,,2 !tenuto!G,,2 | %94
 .C,,/.G,,/.C,,/.G,,/ C,2 !tenuto!G,,2 |!pp! C,,4- C,, z |"^rall." [C,,G,,]4 [C,,G,,]2 | %97
"^perdendosi"!>(! [C,,G,,]6-!>)! | [C,,G,,] z z2 !fermata!z2 |] %99

